public/img/svg/linkedin.svg

<svg width="48" height="48" viewBox="0 0 48 48" fill="none" xmlns="http://www.w3.org/2000/svg">
<path d="M35.2909 10.6667H12.7092C11.6411 10.6538 10.7644 11.5088 10.7506 12.5769V35.4237C10.7645 36.4918 11.6411 37.3465 12.7092 37.3333H35.2909C36.3591 37.3466 37.2359 36.4916 37.2495 35.4234V12.5769C37.2358 11.5087 36.3591 10.6536 35.2909 10.6667ZM18.7841 32.9893H14.7814V20.948H18.7841V32.9893ZM17.111 19.3061C17.0017 19.314 16.8921 19.3133 16.7829 19.304H16.7566C15.6066 19.3734 14.618 18.4973 14.5487 17.3473C14.4794 16.1972 15.3554 15.2087 16.5055 15.1393C16.6067 15.1332 16.7084 15.1345 16.8095 15.1432C17.959 15.0599 18.9584 15.9243 19.0417 17.0739C19.125 18.2234 18.2605 19.2228 17.111 19.3061ZM33.2156 32.9893H29.2136V26.5482C29.2136 24.9292 28.6341 23.8251 27.1861 23.8251C26.2611 23.8305 25.4392 24.4164 25.1324 25.2891C25.03 25.604 24.9853 25.9347 25.0006 26.2655V32.9893H20.9986C20.9986 32.9857 21.0511 22.0776 20.999 20.9482H25.001V22.6548C25.7386 21.3712 27.129 20.6044 28.6081 20.6656C31.2413 20.6656 33.2156 22.3866 33.2156 26.0851V32.9893H33.2156Z" fill="white"/>
</svg>

<svg xmlns="http://www.w3.org/2000/svg" width="48" height="48" fill="none"><path fill="#fff" d="M35.29 10.667H12.71a1.935 1.935 0 0 0-1.96 1.91v22.847a1.935 1.935 0 0 0 1.96 1.91h22.58a1.935 1.935 0 0 0 1.96-1.91V12.576a1.935 1.935 0 0 0-1.96-1.91ZM18.785 32.989h-4.003V20.948h4.003v12.041Zm-1.673-13.683a2.09 2.09 0 0 1-.328-.002h-.026a2.086 2.086 0 1 1 .052-4.16 2.087 2.087 0 1 1 .302 4.162ZM33.216 32.99h-4.002v-6.44c0-1.62-.58-2.724-2.028-2.724a2.19 2.19 0 0 0-2.054 1.464 2.747 2.747 0 0 0-.131.976v6.724h-4.002c0-.003.052-10.911 0-12.04h4.002v1.706a3.971 3.971 0 0 1 3.607-1.99c2.633 0 4.608 1.722 4.608 5.42v6.904Z"/></svg>
